X:196
T: ICH STAND AUF BERGES HALDE (ALLE JAHRE WIEDER)
N: B0231
O: Europa, Mitteleuropa, Deutschland
R: Tageszeiten - Lied, Abend
M: 4/4
L: 1/8
K: Eb
E2 | B3cB3A | G4F2
F2 | E2FGA2G2 | F4z2
F2 | G2B2c2B2 | e4d2
c2 | B2AGA2B2 | G4z2

